images/heart-with-number.svg

<svg width="44" height="66" viewBox="0 0 44 66" fill="none" xmlns="http://www.w3.org/2000/svg">
<path d="M20.4438 41C20.143 41 19.8421 40.9 19.6415 40.6C14.2262 34.5 12.9225 33.1 12.6217 32.7C11.9197 31.8 11.5186 30.6 11.5186 29.4C11.5186 26.4 13.9254 24 17.0342 24C18.3379 24 19.5413 24.5 20.5441 25.3C21.5469 24.5 22.8506 24 24.054 24C27.0625 24 29.5696 26.4 29.5696 29.4C29.5696 30.7 29.0682 31.9 28.266 32.8L21.2461 40.7C21.0455 40.9 20.8449 41 20.4438 41ZM14.4268 31.5C14.7276 31.9 17.9367 35.5 20.5441 38.4L26.7617 31.4C27.2631 30.9 27.4637 30.2 27.4637 29.4C27.4637 27.6 25.9594 26.1 24.1543 26.1C23.1515 26.1 22.1486 26.6 21.4467 27.4C21.1458 27.7 20.845 27.8 20.5441 27.8C20.2432 27.8 19.9424 27.6 19.7418 27.4C19.0398 26.6 18.037 26.1 17.0342 26.1C15.2291 26.1 13.7248 27.6 13.7248 29.4C13.6245 30.3 14.0257 31 14.4268 31.5C14.3265 31.5 14.3265 31.5 14.4268 31.5Z" fill="black"/>
<rect x="24" y="15" width="20" height="20" rx="10" fill="#7DB54F"/>
<path d="M30.1309 26.76H31.5309V21.92L31.6309 21.33L31.2309 21.8L30.1309 22.59L29.7509 22.08L31.9509 20.38H32.3109V26.76H33.6809V27.5H30.1309V26.76ZM37.9601 22.09C37.9601 22.4433 37.8934 22.8067 37.7601 23.18C37.6334 23.5467 37.4634 23.9167 37.2501 24.29C37.0434 24.6633 36.8101 25.03 36.5501 25.39C36.2901 25.7433 36.0301 26.08 35.7701 26.4L35.2801 26.83V26.87L35.9201 26.76H38.1001V27.5H34.1201V27.21C34.2668 27.0567 34.4434 26.8667 34.6501 26.64C34.8568 26.4133 35.0701 26.1633 35.2901 25.89C35.5168 25.61 35.7368 25.3167 35.9501 25.01C36.1701 24.6967 36.3668 24.38 36.5401 24.06C36.7201 23.74 36.8634 23.4233 36.9701 23.11C37.0768 22.7967 37.1301 22.5 37.1301 22.22C37.1301 21.8933 37.0368 21.6233 36.8501 21.41C36.6634 21.19 36.3801 21.08 36.0001 21.08C35.7468 21.08 35.5001 21.1333 35.2601 21.24C35.0201 21.34 34.8134 21.4567 34.6401 21.59L34.3101 21.02C34.5434 20.82 34.8201 20.6633 35.1401 20.55C35.4601 20.4367 35.8034 20.38 36.1701 20.38C36.4568 20.38 36.7101 20.4233 36.9301 20.51C37.1501 20.59 37.3368 20.7067 37.4901 20.86C37.6434 21.0133 37.7601 21.1967 37.8401 21.41C37.9201 21.6167 37.9601 21.8433 37.9601 22.09Z" fill="white"/>
</svg>

<svg width="44" height="66" fill="none" xmlns="http://www.w3.org/2000/svg"><path d="M20.444 41c-.301 0-.602-.1-.802-.4-5.416-6.1-6.72-7.5-7.02-7.9-.702-.9-1.103-2.1-1.103-3.3 0-3 2.406-5.4 5.515-5.4 1.304 0 2.507.5 3.51 1.3 1.003-.8 2.307-1.3 3.51-1.3 3.009 0 5.516 2.4 5.516 5.4 0 1.3-.502 2.5-1.304 3.4l-7.02 7.9c-.2.2-.401.3-.802.3Zm-6.017-9.5c.3.4 3.51 4 6.117 6.9l6.218-7c.501-.5.702-1.2.702-2 0-1.8-1.505-3.3-3.31-3.3-1.003 0-2.005.5-2.707 1.3-.301.3-.602.4-.903.4-.3 0-.602-.2-.802-.4-.702-.8-1.705-1.3-2.708-1.3-1.805 0-3.31 1.5-3.31 3.3-.1.9.302 1.6.703 2.1-.1 0-.1 0 0 0Z" fill="#000"/><rect x="24" y="15" width="20" height="20" rx="10" fill="#7DB54F"/><path d="M30.13 26.76h1.4v-4.84l.1-.59-.4.47-1.1.79-.38-.51 2.2-1.7h.36v6.38h1.37v.74h-3.55v-.74Zm7.83-4.67c0 .353-.067.717-.2 1.09a6.56 6.56 0 0 1-.51 1.11c-.207.373-.44.74-.7 1.1-.26.353-.52.69-.78 1.01l-.49.43v.04l.64-.11h2.18v.74h-3.98v-.29c.147-.153.323-.343.53-.57a16.081 16.081 0 0 0 1.3-1.63c.22-.313.417-.63.59-.95.18-.32.323-.637.43-.95.107-.313.16-.61.16-.89 0-.327-.093-.597-.28-.81-.187-.22-.47-.33-.85-.33-.253 0-.5.053-.74.16-.24.1-.447.217-.62.35l-.33-.57c.233-.2.51-.357.83-.47.32-.113.663-.17 1.03-.17.287 0 .54.043.76.13.22.08.407.197.56.35.153.153.27.337.35.55.08.207.12.433.12.68Z" fill="#fff"/></svg>
